X: 42116
T: Warehouse, The
R: reel
M: 4/4
K: Gmajor
G,2B,D GBAG|EGDB, G,A,B,G,|A,2CE ABAG|FDDE FGAF|
G2BG ABGE|DG,B,D GBdB|ABcd ecAG|1 FGAF GDB,D:|2 FGAF GABc||
|:d2BG DGBd|gdfd edBd|e2cA FAce|aege fage|
d2BG DGBd|gdfd edBd|cded cAAG|1 FGAF GABc:|2 FGAF GDB,D||

